X: 207
T:Aragon Mill
M:4/4
L:1/4
K:A
Ac|"A"e2 e>f|e2 A B |"F#m"c2 c> d|c2 GA|
"Bm"B2 B>c|"E7"B2 FA|"Bm"B2  "E7"AF|"A"A4 Ac|
"A"e2 e>f|e2 A B |"F#m"c2 c> d|c2 GA|
"Bm"B2 B>c|"E7"B2 FA|"Bm"B2  "E7"AF|"A"A4 |]

